svgs/perekrestok.svg

<svg width="192" height="192" viewBox="0 0 192 192" fill="none" xmlns="http://www.w3.org/2000/svg">
<path d="M120.667 145.825C120.667 159.175 109.844 169.998 96.4933 169.998C83.1428 169.998 72.32 159.175 72.32 145.825C72.32 139.15 75.0257 133.106 79.4002 128.732L96.4933 111.639L113.586 128.732C117.961 133.106 120.667 139.15 120.667 145.825Z" stroke="black" stroke-width="12" stroke-linejoin="round"/>
<path d="M120.667 46.1733C120.667 32.8228 109.844 22 96.4933 22C83.1428 22 72.32 32.8228 72.32 46.1733C72.32 52.8486 75.0257 58.892 79.4002 63.2665L96.4933 80.3596L113.586 63.2665C117.961 58.892 120.667 52.8486 120.667 46.1733Z" stroke="black" stroke-width="12" stroke-linejoin="round"/>
<path d="M145.827 120.667C159.177 120.667 170 109.844 170 96.4933C170 83.1428 159.177 72.32 145.827 72.32C139.151 72.32 133.108 75.0257 128.734 79.4002L111.64 96.4933L128.734 113.586C133.108 117.961 139.151 120.667 145.827 120.667Z" stroke="black" stroke-width="12" stroke-linejoin="round"/>
<path d="M46.1733 120.667C32.8228 120.667 22 109.844 22 96.4933C22 83.1428 32.8228 72.32 46.1733 72.32C52.8486 72.32 58.8919 75.0257 63.2665 79.4002L80.3596 96.4933L63.2665 113.586C58.8919 117.961 52.8486 120.667 46.1733 120.667Z" stroke="black" stroke-width="12" stroke-linejoin="round"/>
</svg>

<svg xmlns="http://www.w3.org/2000/svg" width="192" height="192" fill="none"><path stroke="#000" stroke-linejoin="round" stroke-width="12" d="M120.667 145.825c0 13.35-10.823 24.173-24.174 24.173S72.32 159.175 72.32 145.825a24.1 24.1 0 0 1 7.08-17.093l17.093-17.093 17.093 17.093a24.1 24.1 0 0 1 7.081 17.093ZM120.667 46.173c0-13.35-10.823-24.173-24.174-24.173S72.32 32.823 72.32 46.173a24.1 24.1 0 0 0 7.08 17.094L96.493 80.36l17.093-17.093a24.1 24.1 0 0 0 7.081-17.094ZM145.827 120.667c13.35 0 24.173-10.823 24.173-24.174S159.177 72.32 145.827 72.32a24.1 24.1 0 0 0-17.093 7.08L111.64 96.493l17.094 17.093a24.1 24.1 0 0 0 17.093 7.081ZM46.173 120.667C32.823 120.667 22 109.844 22 96.493S32.823 72.32 46.173 72.32a24.1 24.1 0 0 1 17.094 7.08L80.36 96.493l-17.093 17.093a24.1 24.1 0 0 1-17.094 7.081Z"/></svg>
